images/svg/icons/social/blogger_hover.svg

<?xml version="1.0" encoding="UTF-8" standalone="no"?>
<svg width="40px" height="40px" viewBox="0 0 40 40" version="1.1" xmlns="http://www.w3.org/2000/svg" xmlns:xlink="http://www.w3.org/1999/xlink">
    <!-- Generator: Sketch 39.1 (31720) - http://www.bohemiancoding.com/sketch -->
    <title>blogger_hover</title>
    <desc>Created with Sketch.</desc>
    <defs></defs>
    <g id="-" stroke="none" stroke-width="1" fill="none" fill-rule="evenodd">
        <g id="Social-media-Icons_new" transform="translate(-77.000000, -297.000000)">
            <g id="blogger_hover" transform="translate(77.000000, 297.000000)">
                <rect id="bg" fill="#FBC866" x="-1.40791334e-15" y="-1.52423685e-15" width="40" height="40"></rect>
                <rect id="bg" fill="#BC954C" x="-1.40791334e-15" y="-1.52423685e-15" width="40" height="40"></rect>
                <path d="M30.1362858,18.1535368 L30.1362858,17.9464568 L29.721431,17.7393769 C29.3065762,17.5322969 27.4604723,17.7393769 26.9419037,17.2285796 C26.5270489,16.8144197 26.5270489,16.3036225 26.4302495,15.3786653 C26.222822,13.839371 26.0153946,13.735831 25.8148815,13.2181311 C24.9920861,11.2646768 22.4199862,9.82892242 20.8781091,9.72538244 L16.2455637,9.72538244 C12.643241,9.72538244 9.76,12.6037939 9.76,16.2000825 L9.76,23.799917 C9.76,27.2926657 12.643241,30.2746171 16.2455637,30.2746171 L23.7544359,30.2746171 C27.3567586,30.2746171 30.2399995,27.3962057 30.2399995,23.799917 L30.2399995,18.5607941 L30.1362858,18.1535368 L30.1362858,18.1535368 Z M16.4460768,15.0749481 L20.0483995,15.0749481 C20.7674812,15.0749481 21.2860497,15.6892853 21.2860497,16.3105252 C21.2860497,17.0284023 20.6706817,17.5461022 20.0483995,17.5461022 L16.4460768,17.5461022 C15.7269951,17.5461022 15.2084266,16.931765 15.2084266,16.3105252 C15.1116272,15.6892853 15.7269951,15.0749481 16.4460768,15.0749481 L16.4460768,15.0749481 Z M23.6507222,24.9388568 L16.3423631,24.9388568 C15.6232814,24.9388568 15.1047129,24.3245196 15.1047129,23.7032797 C15.1047129,22.9854025 15.7200809,22.4677026 16.3423631,22.4677026 L23.6507222,22.4677026 C24.3698039,22.4677026 24.8883724,23.0820398 24.8883724,23.7032797 C24.8883724,24.3176169 24.3698039,24.9388568 23.6507222,24.9388568 L23.6507222,24.9388568 Z" id="icon" fill="#FFFFFF"></path>
            </g>
        </g>
    </g>
</svg>

<svg xmlns="http://www.w3.org/2000/svg" viewBox="0 0 40 40"><defs><style>.a{fill:#fbc866;}.b{fill:#bc954c;}.c{fill:#fff;}</style></defs><title>blogger_hover</title><rect class="a" width="40" height="40"/><rect class="b" width="40" height="40"/><path class="c" d="M30.14,18.15V17.95l-0.41-.21c-0.41-.21-2.26,0-2.78-0.51a2.79,2.79,0,0,1-.51-1.85,5.56,5.56,0,0,0-.62-2.16,6.67,6.67,0,0,0-4.94-3.49H16.25A6.45,6.45,0,0,0,9.76,16.2v7.6a6.52,6.52,0,0,0,6.49,6.47h7.51a6.45,6.45,0,0,0,6.49-6.47V18.56l-0.1-.41h0ZM16.45,15.07H20a1.24,1.24,0,1,1,0,2.47h-3.6a1.25,1.25,0,0,1-1.24-1.24,1.19,1.19,0,0,1,1.24-1.24h0Zm7.2,9.86H16.34a1.24,1.24,0,1,1,0-2.47h7.31a1.24,1.24,0,1,1,0,2.47h0Z"/></svg>
